lib/brands/icons/sharecare.svg

<svg xmlns="http://www.w3.org/2000/svg" fill="none" aria-hidden="true" viewBox="0 0 48 48"><g id="sharecare-Icon"><g id="Group"><path id="Vector" fill="#343534" fill-rule="evenodd" d="M22.2044 34.7933C20.7775 34.8083 19.3617 34.5402 18.0391 34.0045C16.7164 33.4688 15.5131 32.6762 14.4988 31.6724C13.4845 30.6687 12.6792 29.4738 12.1297 28.1568C11.5801 26.8399 11.2972 25.427 11.2972 24C11.2972 22.573 11.5801 21.1602 12.1297 19.8432C12.6792 18.5263 13.4845 17.3314 14.4988 16.3276C15.5131 15.3239 16.7164 14.5312 18.0391 13.9955C19.3617 13.4598 20.7775 13.1917 22.2044 13.2067C23.6218 13.2064 25.0255 13.4853 26.3351 14.0276C27.6448 14.5699 28.8348 15.3648 29.8371 16.3671C30.8395 17.3693 31.6345 18.5592 32.1769 19.8688C32.7194 21.1784 32.9984 22.582 32.9983 23.9994C32.9984 25.4169 32.7194 26.8206 32.177 28.1303C31.6346 29.4399 30.8395 30.6299 29.8372 31.6322C28.8348 32.6346 27.6449 33.4296 26.3352 33.972C25.0256 34.5144 23.6219 34.7935 22.2044 34.7933V34.7933ZM40 38.0706L33.424 32.7171C35.4598 30.2579 36.4088 27.4432 36.4088 24.0006C36.4088 16.1522 30.0492 9.79504 22.2044 9.79504C14.3596 9.79504 8 16.1522 8 23.9994C8 31.8442 14.3596 38.205 22.2044 38.205C25.534 38.205 28.5913 37.0515 31.0124 35.1334L32.3847 38.0706H40Z" clip-rule="evenodd"/><path id="Vector_2" fill="#00BFA5" fill-rule="evenodd" d="M25.5941 17.9764C25.7998 17.9764 26.0246 17.9883 26.2636 18.0121C27.7143 18.1501 29.3934 19.4807 29.5932 22.0279V22.016C29.5932 26.637 22.1908 31.22 22.1908 31.22C22.1908 31.22 14.7871 26.461 14.7871 22.016V22.0279C14.9964 19.4807 16.6707 18.1512 18.1215 18.0109C18.3569 17.9871 18.5817 17.9764 18.7934 17.9764C20.4701 17.9764 21.2727 18.2737 22.1908 19.3701C23.1112 18.2737 23.915 17.9764 25.5941 17.9764" clip-rule="evenodd"/></g></g></svg>

<svg xmlns="http://www.w3.org/2000/svg" fill="none" aria-hidden="true" viewBox="0 0 48 48"><g fill-rule="evenodd" clip-rule="evenodd"><path fill="#343534" d="M22.204 34.793a10.793 10.793 0 1 1 0-21.586 10.79 10.79 0 0 1 9.973 14.923 10.793 10.793 0 0 1-9.973 6.663ZM40 38.071l-6.576-5.354c2.036-2.46 2.985-5.274 2.985-8.716 0-7.849-6.36-14.206-14.205-14.206C14.36 9.795 8 16.152 8 23.999c0 7.845 6.36 14.206 14.204 14.206 3.33 0 6.387-1.154 8.808-3.072l1.373 2.938H40Z"/><path fill="#00BFA5" d="M25.594 17.976c.206 0 .43.012.67.036 1.45.138 3.13 1.469 3.33 4.016v-.012c0 4.621-7.403 9.204-7.403 9.204s-7.404-4.759-7.404-9.204v.012c.21-2.547 1.884-3.877 3.335-4.017.235-.024.46-.035.671-.035 1.677 0 2.48.298 3.398 1.394.92-1.096 1.724-1.394 3.403-1.394"/></g></svg>
